X: 1
T: Johnny And Dorothy Livingston
M: 4/4
L: 1/8
R: reel
K: Dmaj
DE|:{E}FA,{C}A,B, A,B,DF|EDEF D2 EF|G>FGB {d}BAdF<|FEDFE2 D>E|FA,A,B, A,B,DF|
GABc d2 c>B|AB/c/dF GEAG|1 [F2A2] [D2A2] [D2A2] DE:|2 [F2A2] [D2A2] [D2A2] A/B/c||
d2 {e}f2 A3f|g>fed B2 {dB}AB|d2 f2 A2 ag|f2a/f/e [e2e2] d>e|fedc d2 cB|
AB/c/dF G2 A>G|FAdF GEAG|1 [F2A2] [D2A2] [D2A2] A/B/c:|2 [F2A2] [D2A2] [D2A2] DE||
